X:1
T:Easter Hymn, 77.77 D
T:Easter Hymn, 77.77 D
T:Lyra Davidica, 1708
T:Public Domain Courtesy of the Cyber Hymnal™
C:Lyra Davidica, 1708
Z:Public Domain
Z:Courtesy of the Cyber Hymnal™
%%score ( 1 2 ) ( 3 4 )
L:1/8
Q:1/4=110
M:4/4
K:C
V:1 treble 
V:2 treble 
V:3 bass 
V:4 bass 
V:1
 C2 [CE]2 [DG]2 C2 | [CF]2 [FA]2 ([FA]2 [EG]2) | (EFGC F2) (EF) | ([CE]2 [B,D]2) C4 | %4
 [CF]2 [CG]2 [CA]2 [CG]2 | F2 [CE]2 ([CE]2 [B,D]2) | (EFGC F2) (EF) | ([CE]2 [B,D]2) C4 | %8
 B2 c2 [Gd]2 G2 | [Gc]2 [Fd]2 [Ee]4 |!f! (BcdG c2) (Bc) | ([GB]2 [^FA]2) G4 | %12
!ff! ([B,G][CA]) ([DB][B,G]) [Cc]2 [CE]2 | [CF]2 [FA]2 ([FA]2 [EG]2) | %14
!fff! ([Ec][FB][Gc][EG]) (AB) ([Gc][Fd]) | ([Ec]2 B2) [Ec]4 |] %16
V:2
 C2 x2 C2 x2 | x8 | C4 (CB,) C2 | x4 C4 | x8 | (CB,) x6 | C4 (CB,) C2 | x4 C4 | G3 x5 | x8 | %10
 G4 (G^F) G2 | x8 | x8 | x8 | x4 F2 x2 | x2 (GF) x4 |] %16
V:3
 [C,E,]2 [C,G,]2 [B,,G,]2 [C,E,]2 | [A,C]2 [F,C]2 [C,C]4 | G,4 (A,F,) ([C,G,][A,,F,]) | %3
 (G,3 F,) [C,E,]4 | [A,,F,]2 [C,E,]2 F,2 [E,G,]2 | (A,F,) [C,G,]2 [G,,G,]4 | %6
 G,4 (A,F,) ([C,G,][A,,F,]) | (G,3 F,) [C,E,]4 | [G,,D]2 [A,,C]2 [B,,B,]2 B,2 | C3 [C,C]4 x | %10
!f! D4 [A,D]2 ([G,D][E,C]) | D3 C [G,,B,]4 |!ff! G,3 (G,2 F,) (CB,) | [A,C]2 [F,C]2 [C,C]4 | %14
!fff! G,3 [C,C] ([F,C][D,D]) ([E,C][F,A,]) | G,4 [C,G,]4 |] %16
V:4
 x8 | x8 | (C,D, E,2) D,2 x2 | G,,4 x4 | x8 | D,2 x6 | (C,D, E,2 D,2) x2 | G,,4 x4 | x6 (G,F,) | %9
 E,2 D,2 x4 | G,A, B,2 x4 | D,4 x4 | x8 | x8 | C, D, E, x5 | x8 |] %16

